ncols 36
nrows 30
xllcorner 73.26
yllcorner 61.16
cellsize 0.008
NODATA_value -9999
-9999 -9999 -9999 -9999 -9999 -9999 -9999 -9999 -9999 -9999 -9999 -9999 -9999 -9999 -9999 -9999 -9999 -9999 -9999 -9999 -9999 -9999 -9999 -9999 -9999 -9999 -9999 -9999 -9999 -9999 -9999 -9999 -9999 -9999 -9999 -9999
-9999 -9999 -9999 -9999 -9999 -9999 -9999 -9999 -9999 -9999 -9999 -9999 -9999 -1924.69 -1925.16 -1925.83 -1926.73 -1927.88 -1929.29 -1930.95 -1932.84 -1934.93 -9999 -9999 -9999 -9999 -9999 -9999 -9999 -9999 -9999 -9999 -9999 -9999 -9999 -9999
-9999 -9999 -9999 -9999 -9999 -9999 -9999 -9999 -9999 -1918.19 -1917.76 -1917.35 -1917.03 -1916.88 -1916.97 -1917.35 -1918.06 -1919.15 -1920.62 -1922.47 -1924.65 -1927.12 -1929.83 -1932.71 -1935.68 -1938.67 -9999 -9999 -9999 -9999 -9999 -9999 -9999 -9999 -9999 -9999
-9999 -9999 -9999 -9999 -9999 -9999 -9999 -1913.32 -1912.30 -1911.17 -1909.98 -1908.84 -1907.83 -1907.06 -1906.63 -1906.62 -1907.09 -1908.10 -1909.65 -1911.74 -1914.31 -1917.30 -1920.63 -1924.20 -1927.90 -1931.65 -1935.34 -1938.92 -9999 -9999 -9999 -9999 -9999 -9999 -9999 -9999
-9999 -9999 -9999 -9999 -9999 -9999 -1908.29 -1906.63 -1904.72 -1902.64 -1900.49 -1898.40 -1896.50 -1894.92 -1893.82 -1893.30 -1893.46 -1894.36 -1896.02 -1898.42 -1901.50 -1905.16 -1909.30 -1913.76 -1918.41 -1923.12 -1927.76 -1932.23 -1936.45 -9999 -9999 -9999 -9999 -9999 -9999 -9999
-9999 -9999 -9999 -9999 -1905.59 -1903.75 -1901.47 -1898.78 -1895.75 -1892.49 -1889.14 -1885.87 -1882.85 -1880.28 -1878.34 -1877.19 -1876.96 -1877.73 -1879.52 -1882.31 -1886.02 -1890.52 -1895.65 -1901.23 -1907.06 -1912.97 -1918.79 -1924.38 -1929.63 -1934.47 -1938.87 -9999 -9999 -9999 -9999 -9999
-9999 -9999 -9999 -1902.08 -1899.88 -1897.08 -1893.69 -1889.76 -1885.40 -1880.73 -1875.94 -1871.25 -1866.90 -1863.13 -1860.19 -1858.29 -1857.59 -1858.20 -1860.15 -1863.41 -1867.87 -1873.37 -1879.70 -1886.61 -1893.86 -1901.21 -1908.44 -1915.36 -1921.85 -1927.80 -1933.16 -1937.92 -9999 -9999 -9999 -9999
-9999 -9999 -1899.17 -1896.76 -1893.61 -1889.70 -1885.04 -1879.70 -1873.81 -1867.52 -1861.09 -1854.78 -1848.89 -1843.76 -1839.67 -1836.90 -1835.66 -1836.09 -1838.22 -1842.02 -1847.35 -1854.00 -1861.69 -1870.14 -1879.01 -1888.00 -1896.85 -1905.30 -1913.20 -1920.42 -1926.89 -1932.60 -1937.57 -9999 -9999 -9999
-9999 -9999 -1894.38 -1891.11 -1886.93 -1881.80 -1875.76 -1868.87 -1861.29 -1853.24 -1845.00 -1836.91 -1829.35 -1822.71 -1817.37 -1813.65 -1811.82 -1812.05 -1814.38 -1818.77 -1825.05 -1832.95 -1842.15 -1852.27 -1862.92 -1873.72 -1884.33 -1894.47 -1903.92 -1912.52 -1920.21 -1926.95 -1932.78 -9999 -9999 -9999
-9999 -1892.64 -1889.48 -1885.31 -1880.05 -1873.66 -1866.16 -1857.66 -1848.34 -1838.44 -1828.32 -1818.38 -1809.07 -1800.87 -1794.22 -1789.52 -1787.08 -1787.09 -1789.64 -1794.64 -1801.90 -1811.11 -1821.87 -1833.74 -1846.24 -1858.92 -1871.38 -1883.26 -1894.32 -1904.38 -1913.33 -1921.15 -1927.88 -1933.60 -9999 -9999
-1891.33 -1888.51 -1884.63 -1879.58 -1873.25 -1865.62 -1856.70 -1846.62 -1835.57 -1823.87 -1811.90 -1800.14 -1789.12 -1779.38 -1771.44 -1765.77 -1762.73 -1762.54 -1765.29 -1770.89 -1779.12 -1789.62 -1801.92 -1815.50 -1829.82 -1844.35 -1858.61 -1872.22 -1884.86 -1896.34 -1906.53 -1915.42 -1923.03 -1929.47 -1934.85 -9999
-1887.91 -1884.56 -1880.03 -1874.16 -1866.87 -1858.10 -1847.88 -1836.35 -1823.73 -1810.36 -1796.70 -1783.28 -1770.69 -1759.54 -1750.43 -1743.87 -1740.27 -1739.89 -1742.83 -1748.99 -1758.11 -1769.78 -1783.49 -1798.64 -1814.62 -1830.84 -1846.77 -1861.95 -1876.04 -1888.82 -1900.15 -1910.00 -1918.43 -1925.52 -1931.43 -9999
-1884.75 -1880.96 -1875.87 -1869.34 -1861.23 -1851.51 -1840.21 -1827.47 -1813.54 -1798.79 -1783.72 -1768.91 -1755.01 -1742.69 -1732.60 -1725.30 -1721.24 -1720.71 -1723.80 -1730.42 -1740.28 -1752.93 -1767.81 -1784.27 -1801.64 -1819.27 -1836.58 -1853.07 -1868.37 -1882.23 -1894.51 -1905.18 -1914.27 -1921.92 -1928.27 -9999
-1881.93 -1877.83 -1872.35 -1865.33 -1856.64 -1846.24 -1834.16 -1820.55 -1805.68 -1789.94 -1773.86 -1758.05 -1743.21 -1730.05 -1719.25 -1711.42 -1707.03 -1706.39 -1709.59 -1716.54 -1726.93 -1740.29 -1756.01 -1773.41 -1791.78 -1810.42 -1828.72 -1846.15 -1862.32 -1876.96 -1889.92 -1901.17 -1910.75 -1918.79 -1925.45 -9999
-1879.54 -1875.27 -1869.59 -1862.31 -1853.33 -1842.57 -1830.08 -1816.02 -1800.65 -1784.39 -1767.78 -1751.45 -1736.12 -1722.52 -1711.35 -1703.25 -1698.69 -1697.98 -1701.25 -1708.37 -1719.03 -1732.76 -1748.92 -1766.81 -1785.70 -1804.87 -1823.69 -1841.62 -1858.24 -1873.29 -1886.61 -1898.15 -1907.99 -1916.23 -1923.06 -9999
-1877.62 -1873.35 -1867.67 -1860.39 -1851.41 -1840.65 -1828.16 -1814.10 -1798.73 -1782.47 -1765.86 -1749.53 -1734.20 -1720.60 -1709.43 -1701.33 -1696.77 -1696.06 -1699.33 -1706.45 -1717.11 -1730.84 -1747.00 -1764.89 -1783.78 -1802.95 -1821.77 -1839.70 -1856.32 -1871.37 -1884.69 -1896.23 -1906.07 -1914.31 -1921.14 -9999
-1876.17 -1872.07 -1866.59 -1859.57 -1850.88 -1840.48 -1828.40 -1814.79 -1799.92 -1784.18 -1768.10 -1752.29 -1737.45 -1724.29 -1713.49 -1705.66 -1701.27 -1700.63 -1703.83 -1710.78 -1721.17 -1734.53 -1750.25 -1767.65 -1786.02 -1804.66 -1822.96 -1840.39 -1856.56 -1871.20 -1884.16 -1895.41 -1904.99 -1913.03 -1919.69 -9999
-1875.15 -1871.36 -1866.27 -1859.74 -1851.63 -1841.91 -1830.61 -1817.87 -1803.94 -1789.19 -1774.12 -1759.31 -1745.41 -1733.09 -1723.00 -1715.70 -1711.64 -1711.11 -1714.20 -1720.82 -1730.68 -1743.33 -1758.21 -1774.67 -1792.04 -1809.67 -1826.98 -1843.47 -1858.77 -1872.63 -1884.91 -1895.58 -1904.67 -1912.32 -1918.67 -9999
-1874.47 -1871.12 -1866.59 -1860.72 -1853.43 -1844.66 -1834.44 -1822.91 -1810.29 -1796.92 -1783.26 -1769.84 -1757.25 -1746.10 -1736.99 -1730.43 -1726.83 -1726.45 -1729.39 -1735.55 -1744.67 -1756.34 -1770.05 -1785.20 -1801.18 -1817.40 -1833.33 -1848.51 -1862.60 -1875.38 -1886.71 -1896.56 -1904.99 -1912.08 -1917.99 -9999
-1874.05 -1871.23 -1867.35 -1862.30 -1855.97 -1848.34 -1839.42 -1829.34 -1818.29 -1806.59 -1794.62 -1782.86 -1771.84 -1762.10 -1754.16 -1748.49 -1745.45 -1745.26 -1748.01 -1753.61 -1761.84 -1772.34 -1784.64 -1798.22 -1812.54 -1827.07 -1841.33 -1854.94 -1867.58 -1879.06 -1889.25 -1898.14 -1905.75 -1912.19 -1917.57 -9999
-9999 -1871.52 -1868.36 -1864.19 -1858.93 -1852.54 -1845.04 -1836.54 -1827.22 -1817.32 -1807.20 -1797.26 -1787.95 -1779.75 -1773.10 -1768.40 -1765.96 -1765.97 -1768.52 -1773.52 -1780.78 -1789.99 -1800.75 -1812.62 -1825.12 -1837.80 -1850.26 -1862.14 -1873.20 -1883.26 -1892.21 -1900.03 -1906.76 -1912.48 -9999 -9999
-9999 -9999 -1869.42 -1866.15 -1861.97 -1856.84 -1850.80 -1843.91 -1836.33 -1828.28 -1820.04 -1811.95 -1804.39 -1797.75 -1792.41 -1788.69 -1786.86 -1787.09 -1789.42 -1793.81 -1800.09 -1807.99 -1817.19 -1827.31 -1837.96 -1848.76 -1859.37 -1869.51 -1878.96 -1887.56 -1895.25 -1901.99 -1907.82 -9999 -9999 -9999
-9999 -9999 -1870.37 -1867.96 -1864.81 -1860.90 -1856.24 -1850.90 -1845.01 -1838.72 -1832.29 -1825.98 -1820.09 -1814.96 -1810.87 -1808.10 -1806.86 -1807.29 -1809.42 -1813.22 -1818.55 -1825.20 -1832.89 -1841.34 -1850.21 -1859.20 -1868.05 -1876.50 -1884.40 -1891.62 -1898.09 -1903.80 -1908.77 -9999 -9999 -9999
-9999 -9999 -9999 -1869.44 -1867.24 -1864.44 -1861.05 -1857.12 -1852.76 -1848.09 -1843.30 -1838.61 -1834.26 -1830.49 -1827.55 -1825.65 -1824.95 -1825.56 -1827.51 -1830.77 -1835.23 -1840.73 -1847.06 -1853.97 -1861.22 -1868.57 -1875.80 -1882.72 -1889.21 -1895.16 -1900.52 -1905.28 -9999 -9999 -9999 -9999
-9999 -9999 -9999 -9999 -1869.11 -1867.27 -1864.99 -1862.30 -1859.27 -1856.01 -1852.66 -1849.39 -1846.37 -1843.80 -1841.86 -1840.71 -1840.48 -1841.25 -1843.04 -1845.83 -1849.54 -1854.04 -1859.17 -1864.75 -1870.58 -1876.49 -1882.31 -1887.90 -1893.15 -1897.99 -1902.39 -9999 -9999 -9999 -9999 -9999
-9999 -9999 -9999 -9999 -9999 -9999 -1867.97 -1866.31 -1864.40 -1862.32 -1860.17 -1858.08 -1856.18 -1854.60 -1853.50 -1852.98 -1853.14 -1854.04 -1855.70 -1858.10 -1861.18 -1864.84 -1868.98 -1873.44 -1878.09 -1882.80 -1887.44 -1891.91 -1896.13 -9999 -9999 -9999 -9999 -9999 -9999 -9999
-9999 -9999 -9999 -9999 -9999 -9999 -9999 -1869.16 -1868.14 -1867.01 -1865.82 -1864.68 -1863.67 -1862.90 -1862.47 -1862.46 -1862.93 -1863.94 -1865.49 -1867.58 -1870.15 -1873.14 -1876.47 -1880.04 -1883.74 -1887.49 -1891.18 -1894.76 -9999 -9999 -9999 -9999 -9999 -9999 -9999 -9999
-9999 -9999 -9999 -9999 -9999 -9999 -9999 -9999 -9999 -1870.19 -1869.76 -1869.35 -1869.03 -1868.88 -1868.97 -1869.35 -1870.06 -1871.15 -1872.62 -1874.47 -1876.65 -1879.12 -1881.83 -1884.71 -1887.68 -1890.67 -9999 -9999 -9999 -9999 -9999 -9999 -9999 -9999 -9999 -9999
-9999 -9999 -9999 -9999 -9999 -9999 -9999 -9999 -9999 -9999 -9999 -9999 -9999 -1872.85 -1873.32 -1873.99 -1874.89 -1876.04 -1877.45 -1879.11 -1881.00 -1883.09 -9999 -9999 -9999 -9999 -9999 -9999 -9999 -9999 -9999 -9999 -9999 -9999 -9999 -9999
-9999 -9999 -9999 -9999 -9999 -9999 -9999 -9999 -9999 -9999 -9999 -9999 -9999 -9999 -9999 -9999 -9999 -9999 -9999 -9999 -9999 -9999 -9999 -9999 -9999 -9999 -9999 -9999 -9999 -9999 -9999 -9999 -9999 -9999 -9999 -9999
